!!!!SEGMENT: Fsc2009-Regina_celi_letare.krn
!!!id: Fsc2009
!!!AGN: Motet
!!!SCT: Lowinsky (1968)
!!!voices: 5
!!!COM: Costanzo Festa
!!!OTL: Regina celi, letare
**kern	**kern	**kern	**kern	**kern
*part5	*part4	*part3	*part2	*part1
*staff5	*staff4	*staff3	*staff2	*staff1
*I"Bassus II	*I"Bassus I	*I"Tenor	*I"Altus	*I"Superius
*I'B. II	*I'B. I	*I'T	*I'A	*I'S
*clefF4	*clefF4	*clefGv2	*clefGv2	*clefG2
*k[b-]	*k[b-]	*k[b-]	*k[b-]	*k[b-]
*F:	*F:	*F:	*F:	*F:
*M2/1	*M2/1	*M2/1	*M2/1	*M2/1
*met(C|)	*met(C|)	*met(C|)	*met(C|)	*met(C|)
!!section: Prima pars: Regina celi, letare
!!!OMD: Prima pars: Regina celi, letare
=1	=1	=1	=1	=1
!	!	!	!	!LO:TX:a:t=Canon&colon; superius/tenor at the octave
0r	2r	0r	0r	1f
.	1F	.	.	.
.	.	.	.	1g
.	2E	.	.	.
=2	=2	=2	=2	=2
2r	2F	0r	0r	1f
1F	2D	.	.	.
.	1C	.	.	1g
2E	.	.	.	.
=3	=3	=3	=3	=3
2F	2r	1F	0r	1a
2D	1F	.	.	.
1C	.	1G	.	1r
.	2E	.	.	.
=4	=4	=4	=4	=4
2r	2F	1F	0r	0r
1F	2D	.	.	.
.	1C	1G	.	.
2E	.	.	.	.
=5	=5	=5	=5	=5
2F	2r	1A	1c	0r
2A	1c	.	.	.
1G	.	1r	1d	.
.	2B-y	.	.	.
=6	=6	=6	=6	=6
2r	2c	0r	1c	0r
1c	2A	.	.	.
.	1G	.	1d	.
2B-y	.	.	.	.
=7	=7	=7	=7	=7
2c	1r	0r	1e	1r
2A	.	.	.	.
1G	2r	.	1r	1b-y
.	2G	.	.	.
=8	=8	=8	=8	=8
0r	2D	0r	1f	1a
.	2F	.	.	.
.	4C	.	1e	1g
.	4D	.	.	.
.	4E	.	.	.
.	4F	.	.	.
=9	=9	=9	=9	=9
0r	4G	1r	1d	2.b-y
.	4A	.	.	.
.	1B-y	.	.	.
.	.	.	.	4a
.	.	1B-y	2r	4g
.	.	.	.	4f
.	2E-X	.	2e-i	[2g
=10	=10	=10	=10	=10
0r	1F	1A	2d	4g]
.	.	.	.	4f
.	.	.	2.c	1f
.	1C	1G	.	.
.	.	.	4B-y	.
.	.	.	2c	2e
=11	=11	=11	=11	=11
1r	0r	2.B-y	4d	1f
.	.	.	4B-y	.
.	.	.	2.d	.
.	.	4A	.	.
1E-X	.	4G	.	1r
.	.	4F	4c	.
.	.	[2G	[2c	.
=12	=12	=12	=12	=12
1D	2r	4G]	2c]	0r
.	.	4F	.	.
.	2F	1F	2Bni	.
1C	1G	.	[1c	.
.	.	2E	.	.
=13	=13	=13	=13	=13
2r	2A	1F	1c]	0r
1F	2.c	.	.	.
.	.	1r	2.c	.
.	4B-y	.	.	.
[2c	4A	.	.	.
.	4G	.	4B-y	.
=14	=14	=14	=14	=14
4c]	2.F	0r	4A	1r
4B-y	.	.	4G	.
4A	.	.	1F	.
4G	4E	.	.	.
2F	2D	.	.	1f
2A	2F	.	[2f	.
=15	=15	=15	=15	=15
1G	1C	0r	2f]	1cc
.	.	.	2e	.
1F	2r	.	1f	1r
.	2F	.	.	.
=16	=16	=16	=16	=16
0r	1c	1r	1F	2r
.	.	.	.	2cc
.	1r	1F	2c	2a
.	.	.	2d	[2dd
=17	=17	=17	=17	=17
1C	0r	1c	2e	4dd]
.	.	.	.	4cc
.	.	.	2c	1cc
1G	.	1r	1d	.
.	.	.	.	2bni
=18	=18	=18	=18	=18
1r	1F	2r	2c	2cc
.	.	2c	2.f	2.a
1F	2c	2A	.	.
.	.	.	4g	4g
.	2r	[2d	4a	2f
.	.	.	4f	.
=19	=19	=19	=19	=19
1c	1C	4d]	1g	2e
.	.	4c	.	.
.	.	1c	.	4d
.	.	.	.	4c
2r	1G	.	1g	1d
2G	.	2Bni	.	.
=20	=20	=20	=20	=20
2A	2r	2c	1r	1c
2.c	2F	2.A	.	.
.	2c	.	2r	1r
4B-y	.	4G	.	.
2A	[2d	2F	2d	.
=21	=21	=21	=21	=21
2G	2d]	2E	2e	0r
2E	1c	4D	2.g	.
.	.	4C	.	.
1F	.	1D	.	.
.	.	.	4f	.
.	2B-y	.	[2f	.
=22	=22	=22	=22	=22
1G	2.c	1C	2f]	1r
.	.	.	2e	.
.	4B-y	.	.	.
2F	4A	1r	1f	1cc
.	4G	.	.	.
2F	[2F	.	.	.
=23	=23	=23	=23	=23
2c	2F]	0r	1r	2a
2d	2BB-y	.	.	2.b-y
2c	1F	.	1f	.
.	.	.	.	4a
2A	.	.	.	[2a
=24	=24	=24	=24	=24
1B-y	1G	1r	1d	2a]
.	.	.	.	2g
1A	1F	1c	2.f	1a
.	.	.	4e	.
=25	=25	=25	=25	=25
2D	0r	2A	2f	0r
1G	.	2.B-y	1g	.
.	.	4A	.	.
2C	.	[2A	2e	.
=26	=26	=26	=26	=26
2D	1r	2A]	2f	0r
2E	.	2G	2g	.
2.F	1F	1A	1c	.
4G	.	.	.	.
=27	=27	=27	=27	=27
2A	1D	0r	1r	0r
2B-y	.	.	.	.
2c	1F	.	1f	.
(2d	.	.	.	.
=28	=28	=28	=28	=28
2d)	1G	0r	1d	1b-y
1G	.	.	.	.
.	1C	.	2e	1g
2E	.	.	[2g	.
=29	=29	=29	=29	=29
1F	1D	0r	2g]	1b-y
.	.	.	1f	.
1G	1C	.	.	1cc
.	.	.	2e	.
=30	=30	=30	=30	=30
0r	0r	1B-y	1d	1f
.	.	1G	2r	1g
.	.	.	[2d	.
=31	=31	=31	=31	=31
2r	0r	1B-y	2d]	2f
2BB-y	.	.	1f	2b-y
2F	.	1c	.	2a
2C	.	.	2e	[2g
=32	=32	=32	=32	=32
1D	0r	1F	2d	4g]
.	.	.	.	4f
.	.	.	2B-y	1f
1C	.	1G	2.c	.
.	.	.	.	2e
.	.	.	4B-y	.
=33	=33	=33	=33	=33
1F	2r	2F	4c	1f
.	.	.	4A	.
.	2BB-y	2B-y	2.d	.
2r	2F	2A	.	1r
.	.	.	4c	.
2E	2C	[2G	(2c	.
=34	=34	=34	=34	=34
1F	1D	4G]	2c)	0r
.	.	4F	.	.
.	.	1F	2Bni	.
1G	1C	.	[1c	.
.	.	2E	.	.
=35	=35	=35	=35	=35
2A	1F	1F	2c]	0r
2F	.	.	4B-y	.
.	.	.	4c	.
2D	2r	1r	1d	.
[2G	2B-y	.	.	.
=36	=36	=36	=36	=36
2G]	2G	0r	2r	1r
2F	1c	.	2f	.
1G	.	.	2d	2r
.	2B-y	.	[2g	2b-y
=37	=37	=37	=37	=37
2E	1c	0r	4g]	2g
.	.	.	4e	.
2C	.	.	2.g	1cc
1D	2A	.	.	.
.	.	.	4f	.
.	2F	.	[2f	2b-y
=38	=38	=38	=38	=38
1C	1G	1r	2f]	1cc
.	.	.	2e	.
1r	2F	2r	1f	2a
.	2BB-y	2B-y	.	2f
=39	=39	=39	=39	=39
1C	1E-X	2G	1r	1g
.	.	1c	.	.
2D	1F	.	2r	2.f
2D	.	2B-y	2B-y	.
.	.	.	.	4d
=40	=40	=40	=40	=40
2C	2G	1c	2G	4e
.	.	.	.	4f
2E	2C	.	1c	2.g
2F	2D	2A	.	.
.	.	.	.	4f
2D	2D	2F	2Bni	[2f
=41	=41	=41	=41	=41
2E	1C	1G	1c	2f]
2C	.	.	.	2e
2r	1r	2.F	2A	1f
2BB-y	.	.	2B-y	.
.	.	4D	.	.
=42	=42	=42	=42	=42
1C	1r	4E	2G	0r
.	.	4F	.	.
.	.	2.G	1c	.
1D	1F	.	.	.
.	.	4F	.	.
.	.	[2F	2Bni	.
=43	=43	=43	=43	=43
2C	1G	2F]	2c	0r
1G	.	2E	2G	.
.	1A	1F	2r	.
[2F	.	.	2f	.
=44	=44	=44	=44	=44
2F]	1G	0r	1g	0r
2E	.	.	.	.
2F	2r	.	1a	.
2D	[2d	.	.	.
=45	=45	=45	=45	=45
1G	2d]	0r	1g	1b-y
.	1G	.	.	.
1C	.	.	2r	1cc
.	[2c	.	2e	.
=46	=46	=46	=46	=46
1r	2c]	0r	2f	1dd
.	2Bni	.	2g	.
1F	1c	.	4a	2cc
.	.	.	4f	.
.	.	.	[2a	2ff
=47	=47	=47	=47	=47
1G	0r	1B-y	4a]	2ee
.	.	.	4g	.
.	.	.	1g	2.dd
1A	.	1c	.	.
.	.	.	.	4cc
.	.	.	2f	[2cc
=48	=48	=48	=48	=48
1G	0r	1d	1g	2cc]
.	.	.	.	2bni
1r	.	2c	2e	1cc
.	.	2f	2a	.
=49	=49	=49	=49	=49
1r	1G	2e	4g	0r
.	.	.	4a	.
.	.	2.d	4b-y	.
.	.	.	4g	.
1c	1C	.	2a	.
.	.	4c	.	.
.	.	[2c	[2g	.
=50	=50	=50	=50	=50
1F	1D	2c]	4g]	0r
.	.	.	4f	.
.	.	2Bni	1f	.
1G	1C	1c	.	.
.	.	.	2e	.
=51	=51	=51	=51	=51
1F	1r	0r	2.f	1cc
.	.	.	4e	.
1r	2r	.	4d	1f
.	.	.	4c	.
.	[2F	.	[2d	.
=52	=52	=52	=52	=52
1r	2F]	0r	4d]	1g
.	.	.	4c	.
.	2E	.	1c	.
2r	1D	.	.	1f
[2F	.	.	2Bni	.
=53	=53	=53	=53	=53
2F]	1C	1c	1c	0r
2E	.	.	.	.
1D	1r	1F	2r	.
.	.	.	[2f	.
=54	=54	=54	=54	=54
1C	1r	1G	2f]	1r
.	.	.	2e	.
1r	2r	1F	1d	2r
.	2BB-y	.	.	[2b-y
=55	=55	=55	=55	=55
2r	1F	0r	2.c	2b-]
2F	.	.	.	2a
.	.	.	4A	.
2G	1E-X	.	2B-y	1g
2E	.	.	2c	.
=56	=56	=56	=56	=56
2.A	1D	1r	1d	1f
4F	.	.	.	.
2G	1r	2r	2d	2.b-y
[2E-X	.	[2B-y	[2e-i	.
.	.	.	.	4a
=57	=57	=57	=57	=57
2E-]	2r	2B-]	4e-]	2g
.	.	.	4d	.
2F	2F	2A	4c	1f
.	.	.	4B-y	.
1C	2G	1G	[1c	.
.	2E	.	.	2e
=58	=58	=58	=58	=58
0r	2.A	1F	1c]	1f
.	4F	.	.	.
.	2G	2.B-y	2r	1r
.	[2E	.	[2B-y	.
.	.	4A	.	.
=59	=59	=59	=59	=59
1r	2E]	2G	2B-]	0r
.	2F	1F	2A	.
[1c	1C	.	1G	.
.	.	2E	.	.
=60	=60	=60	=60	=60
1c]	1r	1F	1F	0r
[1F	[1c	1r	1r	.
=61	=61	=61	=61	=61
2F]	1c]	0r	0c	0r
2G	.	.	.	.
2A	[1F	.	.	.
2B-y	.	.	.	.
=62	=62	=62	=62	=62
1.c	2F]	0r	1.F	0r
.	2G	.	.	.
.	2A	.	.	.
2B-y	2B-y	.	2G	.
=63	=63	=63	=63	=63
2A	2.c	0r	2A	1r
2G	.	.	2B-y	.
.	4B-y	.	.	.
2F	2A	.	2.c	[1cc
2C	2G	.	.	.
.	.	.	4B-y	.
=64	=64	=64	=64	=64
2r	2F	0r	2A	1cc]
2.c	2E	.	2G	.
.	1D	.	2F	1f
4B-y	.	.	.	.
4B-y	.	.	[2f	.
4A	.	.	.	.
=65	=65	=65	=65	=65
2.c	1C	1r	2f]	1g
.	.	.	2e	.
4B-y	.	.	.	.
2.A	1F	[1c	2f	2a
.	.	.	[2a	4f
4G	.	.	.	4g
=66	=66	=66	=66	=66
2F	0r	1c]	2a]	4a
.	.	.	.	4b-y
2E	.	.	2.g	1cc
1D	.	1F	.	.
.	.	.	4f	.
.	.	.	[2f	2bni
=67	=67	=67	=67	=67
1C	1r	1G	2f]	0cc
.	.	.	2e	.
1F	2r	2A	1f	.
.	2F	4F	.	.
.	.	4G	.	.
=68	=68	=68	=68	=68
0r	2F	4A	2r	1a
.	.	4B-y	.	.
.	2F	1c	2f	.
.	1G	.	2d	[1g
.	.	2Bni	2d	.
=69	=69	=69	=69	=69
1r	1C	0c	1e	1g]
2r	1F	.	1f	1r
2F	.	.	.	.
=70	=70	=70	=70	=70
2F	0r	1A	2r	1r
2F	.	.	2f	.
1G	.	[1G	2d	2r
.	.	.	2d	2b-y
=71	=71	=71	=71	=71
1C	2r	1G]	1.e-X	2.cc
.	1E-X	.	.	.
.	.	.	.	4cc
1r	.	1r	.	2b-y
.	2F	.	2c	2a
=72	=72	=72	=72	=72
1r	1C	1r	1c	1g
2r	1F	2r	2A	2.f
2BB-y	.	2B-y	[2f	.
.	.	.	.	4g
=73	=73	=73	=73	=73
2F	0r	2.c	2f]	2a
2C	.	.	2.e-X	2.g
.	.	4c	.	.
2E-X	.	2B-y	.	.
.	.	.	4d	4f
2F	.	2A	4c	[2f
.	.	.	4B-y	.
=74	=74	=74	=74	=74
1C	1r	1G	1c	2f]
.	.	.	.	2e
1F	2r	2.F	2r	1f
.	2BB-y	.	2d	.
.	.	4G	.	.
=75	=75	=75	=75	=75
0r	2F	2A	2.c	0r
.	2C	2.G	.	.
.	.	.	4B-y	.
.	2E-X	.	2B-y	.
.	.	4F	.	.
.	2F	[2F	2A	.
=76	=76	=76	=76	=76
1r	1C	2F]	1G	1r
.	.	2E	.	.
2r	[1F	1F	2F	2r
[2c	.	.	[2A	2f
=77	=77	=77	=77	=77
4c]	1F]	0r	4A]	2.f
4B-y	.	.	4B-y	.
4A	.	.	1c	.
4G	.	.	.	4g
4F	1r	.	.	4a
4E	.	.	.	4b-y
4D	.	.	[2f	[2cc
4C	.	.	.	.
=78	=78	=78	=78	=78
1D	1r	1r	2f]	2cc]
.	.	.	4e	2bni
.	.	.	4d	.
2C	2r	2r	4e	1cc
.	.	.	4d	.
2A	[2c	2F	4c	.
.	.	.	4B-y	.
=79	=79	=79	=79	=79
2.c	4c]	2.F	1A	0r
.	4B-y	.	.	.
.	4A	.	.	.
4B-y	4G	4G	.	.
4A	4F	4A	2r	.
4G	4E	4B-y	.	.
4F	4D	(2c	[2f	.
4E	4C	.	.	.
=80	=80	=80	=80	=80
1F	1D	2c)	2f]	1dd
.	.	2Bni	4e	.
.	.	.	4d	.
2G	1C	1c	2e	2g
2E	.	.	[2g	[2cc
=81	=81	=81	=81	=81
1F	0r	0r	4g]	2cc]
.	.	.	4f	.
.	.	.	1f	4b-y
.	.	.	.	4a
1G	.	.	.	1b-y
.	.	.	2e	.
=82	=82	=82	=82	=82
1D	2r	1d	1f	1a
.	2F	.	.	.
2r	2E	2G	1g	1r
[2G	2C	[2c	.	.
=83	=83	=83	=83	=83
4G]	2E	2c]	0r	0r
4F	.	.	.	.
1F	2.F	4B-y	.	.
.	.	4A	.	.
.	.	1B-y	.	.
.	4D	.	.	.
2E	[2G	.	.	.
=84	=84	=84	=84	=84
1F	4G]	1A	1r	1cc
.	4F	.	.	.
.	1F	.	.	.
1r	.	1r	2r	1b-y
.	2E	.	[2G	.
=85	=85	=85	=85	=85
1c	1F	0r	4G]	2a
.	.	.	4F	.
.	.	.	1F	2f
1B-y	1r	.	.	1g
.	.	.	2E	.
=86	=86	=86	=86	=86
2A	2r	1c	2F	1f
2F	1F	.	2c	.
1G	.	1B-y	2d	2r
.	2E-X	.	2e-X	2g
=87	=87	=87	=87	=87
1F	2F	2A	2c	2a
.	2D	2F	1f	2b-y
2r	1C	1G	.	[1cc
[2c	.	.	2e	.
=88	=88	=88	=88	=88
2c]	2.F	1F	1f	1cc]
1F	.	.	.	.
.	4E	.	.	.
.	2D	2r	2r	1r
2E	2C	2G	[2g	.
=89	=89	=89	=89	=89
2F	1F	2A	4g]	0r
.	.	.	4c	.
2D	.	2B-y	1f	.
[1C	1G	[1c	.	.
.	.	.	4e	.
.	.	.	4d	.
=90	=90	=90	=90	=90
1C]	2r	1c]	1e	1g
.	2c	.	.	.
2r	2G	1r	2r	1b-y
2G	2B-y	.	2d	.
=91	=91	=91	=91	=91
2D	4F	0r	1f	1a
.	4G	.	.	.
2F	4A	.	.	.
.	4B-y	.	.	.
4C	1c	.	1e	1g
4D	.	.	.	.
4E	.	.	.	.
4F	.	.	.	.
=92	=92	=92	=92	=92
4G	2r	1G	0d	2r
4A	.	.	.	.
2.B-y	1G	.	.	2.b-y
.	.	1B-y	.	.
4c	.	.	.	4a
[2d	2G	.	.	[2g
=93	=93	=93	=93	=93
4d]	1D	1A	2r	2g]
4c	.	.	.	.
2A	.	.	2.d	2f#i
1B-y	[1G	1G	.	1g
.	.	.	4c	.
.	.	.	4B-y	.
.	.	.	4A	.
=94	=94	=94	=94	=94
2r	1G]	2r	2G	0r
1G	.	2.B-y	1d	.
.	2r	.	.	.
.	.	4A	.	.
2C	2c	[2G	2e	.
=95	=95	=95	=95	=95
1D	2c	2G]	2f	1r
.	2Bni	2F	2d	.
1C	2.c	1G	1e	2r
.	.	.	.	2cc
.	4B-y	.	.	.
=96	=96	=96	=96	=96
1F	4A	0r	2r	2.cc
.	4G	.	.	.
.	1F	.	1c	.
.	.	.	.	4b-y
1r	.	.	.	2a
.	2BB-X	.	[2d	[2b-y
=97	=97	=97	=97	=97
2r	1D	1r	4d]	4b-]
.	.	.	4c	4a
2F	.	.	1f	4g
.	.	.	.	4f
2.c	1C	2r	.	1g
.	.	2c	2e	.
4B-y	.	.	.	.
=98	=98	=98	=98	=98
4A	4F	2.c	1f	0f
4G	4G	.	.	.
1F	4A	.	.	.
.	4B-y	4B-y	.	.
.	2c	2A	2r	.
2BB-y	[2d	[2B-y	[2F	.
=99	=99	=99	=99	=99
1D	2d]	4B-]	2F]	1r
.	.	4A	.	.
.	2B-y	4G	1f	.
.	.	4F	.	.
1C	2.c	1G	.	2r
.	.	.	2e	2cc
.	4B-y	.	.	.
=100	=100	=100	=100	=100
4F	4A	0F	1f	2.cc
4G	4G	.	.	.
4A	1F	.	.	.
4B-y	.	.	.	4b-y
2c	.	.	2r	2a
[2d	2BB-y	.	[2f	[2b-y
=101	=101	=101	=101	=101
2d]	1D	1r	2f]	4b-]
.	.	.	.	4a
2B-y	.	.	4e	4g
.	.	.	4d	4f
2.c	1C	2r	4e	1g
.	.	.	4f	.
.	.	2c	4g	.
4B-y	.	.	4e	.
=102	=102	=102	=102	=102
4A	0F	2.c	2f	2.f
4G	.	.	.	.
1F	.	.	2.c	.
.	.	4B-y	.	8eL
.	.	.	.	8dJ
.	.	2A	.	2c
.	.	.	4F	.
2BB-y	.	[2B-y	[2f	[2d
=103	=103	=103	=103	=103
1D	1r	4B-]	2f]	4d]
.	.	4A	.	4c
.	.	4G	2B-y	1f
.	.	4F	.	.
1C	2r	1G	1c	.
.	2G	.	.	2e
=104	=104	=104	=104	=104
[0Fl	2.A	[0Fl	2A	[0fl
.	.	.	2F	.
.	4B-y	.	.	.
.	4c	.	[1cl	.
.	4B-y	.	.	.
.	4A	.	.	.
.	4G	.	.	.
=105	=105	=105	=105	=105
00F]	00Al	00F]	00c]	00f]
==	==	==	==	==
*-	*-	*-	*-	*-
!!!system-decoration: [*]
!!!RDF**kern: i = editorial accidental
!!!RDF**kern: l = terminal long
!!!ENC: Benjamin Ory
!!!END: 2021/1/20
!!!EED: Benjamin Ory
!!!EEV: 2021/04/23
!!!YEC: Copyright 2021 Benjamin Ory, All Rights Reserved
!!!ONB: Translated from MusicXML on 2021/04/23
